X: 18827
T: Imeland
R: reel
M: 4/4
K: Amixolydian
M:2/2
|:B2B2c2c2-|ceec A2cA|BddB G2B2|Beec A2A2|
B2B2c2c2-|ceec A2cA|BddB GBec|A2A2A4:|
|:a2 ab g2 gf|ed c2 A2 cA|BddB G2 B2|Beec A2 A2|
aaab g2 gf|ed c2 A2 cA|BddB GBec|A2 A2 A4:|

